X:1
T:Title
%%score { ( 1 2 ) | ( 3 4 ) }
L:1/8
M:4/4
K:F
V:1 treble nm="Grand Piano"
V:2 treble 
V:3 bass 
V:4 bass 
V:1
 z4 z2[Q:1/4=108] z z/ G/ | [CFA]2 [CFA]2 [CFA]2 [CFc]2 | [CEG]6 [B,EA]2 | %3
 [A,F]2 [A,F]2 [EG]2 [EG]2 |[M:3/4] A6 |[M:1/4] A2 |[M:4/4] G2 [Ec]2 c2 =B-[FB] | [Ec]6 [FA]>B | %8
 [Ac]2 [CAc]2 [Bd][Ac][GB][FA] |[M:3/4] [GB]6 |[M:1/4] [EG]>[FA] | %11
[M:4/4] [GB]2 [GB]2 [Ac][GB][FA]G | [CFA]6 [CF]2 | [B,D]2 [DGB]2 [CFA]2 [B,EG]2 | %14
[M:7/4] [A,F]6 z2 z2 z4 |[M:4/4] [B,DF]8 | [A,CF]8 |] %17
V:2
 z4 z2 F2 | x8 | x8 | x8 |[M:3/4] x6 |[M:1/4] x2 |[M:4/4] z4 z2 .D2 | x8 | x8 |[M:3/4] x6 | %10
[M:1/4] x2 |[M:4/4] x8 | x8 | x8 |[M:7/4] x14 |[M:4/4] x8 | x8 |] %17
V:3
 z4 z2 A,>B, | F,2 F,2 F,2 A,,2 | C,6 z z/ G/ | D,2 D,2 [C,C]2 [C,C]2 |[M:3/4] [F,CF]6 | %5
[M:1/4] [F,CF]2 |[M:4/4] [E,C]2 [C,G,]2 [G,D]2 [G,,G,]2 | [C,G,]6 z z/ G/ | F,2 F,2 [F,C]2 [F,C]2 | %9
[M:3/4] [C,C]6 |[M:1/4] [C,C]2 |[M:4/4] [C,C]2 [C,C]2 [C,C]2 z E | F,6 z z/ E/ | %13
 B,,2 G,,2 C,2 C,2 |[M:7/4] F,6 z2 z2 z4 |[M:4/4] B,,8 | F,8 |] %17
V:4
 z4 z2 F,2 | x8 | z4 z2 C,2 | x8 |[M:3/4] x6 |[M:1/4] x2 |[M:4/4] x8 | z4 z2 F,2 | x8 |[M:3/4] x6 | %10
[M:1/4] x2 |[M:4/4] z4 z2 [C,C]2 | z4 z2 A,,2 | x8 |[M:7/4] x14 |[M:4/4] x8 | x8 |] %17

